dist/assets/group-781.svg

<svg width="744" height="320" fill="none" xmlns="http://www.w3.org/2000/svg"><path d="M743.522 200c0-110.457-89.543-200-200-200H72.053c-16.569 0-30 13.431-30 30v259.969c0 16.568 13.431 30 30 30h641.469c16.569 0 30-13.432 30-30V200z" fill="#fff"/><g opacity=".1"><mask id="a" style="mask-type:alpha" maskUnits="userSpaceOnUse" x="587" y="0" width="157" height="277"><path d="M587.865 135.789C587.865 61.071 648.436.5 723.154.5c10.973 0 19.868 8.895 19.868 19.868v225.986c0 16.292-13.207 29.5-29.5 29.5h-96.157c-16.293 0-29.5-13.208-29.5-29.5V135.789z" fill="url(#paint0_linear_272_22)" stroke="#6246E5"/></mask><g mask="url(#a)" stroke="#6246E5"><path d="M734.983 244.724c0 19.941-6.082 37.974-15.891 51.011-9.809 13.037-23.322 21.055-38.207 21.055-14.885 0-28.398-8.018-38.207-21.055-9.809-13.037-15.891-31.07-15.891-51.011 0-19.94 6.082-37.973 15.891-51.011 9.809-13.036 23.322-21.054 38.207-21.054 14.885 0 28.398 8.018 38.207 21.054 9.809 13.038 15.891 31.071 15.891 51.011z"/><path d="M737.138 237.086c0 22.313-6.805 42.495-17.784 57.087-10.979 14.592-26.109 23.572-42.779 23.572s-31.8-8.98-42.779-23.572c-10.979-14.592-17.785-34.774-17.785-57.087 0-22.313 6.806-42.495 17.785-57.088 10.979-14.592 26.109-23.571 42.779-23.571s31.8 8.979 42.779 23.571c10.979 14.593 17.784 34.775 17.784 57.088z"/><path d="M739.294 230.88c0 24.422-7.449 46.514-19.468 62.488-12.019 15.975-28.586 25.809-46.843 25.809-18.257 0-34.824-9.834-46.843-25.809-12.019-15.974-19.468-38.066-19.468-62.488 0-24.423 7.449-46.514 19.468-62.489 12.019-15.974 28.586-25.809 46.843-25.809 18.257 0 34.824 9.835 46.843 25.809 12.019 15.975 19.468 38.066 19.468 62.489z"/><path d="M740.731 221.809c0 26.268-8.012 50.03-20.941 67.214-12.929 17.184-30.753 27.767-50.399 27.767s-37.469-10.583-50.398-27.767c-12.93-17.184-20.941-40.946-20.941-67.214s8.011-50.031 20.941-67.215c12.929-17.184 30.752-27.766 50.398-27.766 19.646 0 37.47 10.582 50.399 27.766 12.929 17.184 20.941 40.947 20.941 67.215z"/><path d="M742.167 212.977c0 28.048-8.554 53.421-22.361 71.772-13.806 18.35-32.842 29.654-53.827 29.654s-40.021-11.304-53.828-29.654c-13.806-18.351-22.361-43.724-22.361-71.772 0-28.048 8.555-53.422 22.361-71.772 13.807-18.35 32.843-29.654 53.828-29.654s40.021 11.304 53.827 29.654c13.807 18.35 22.361 43.724 22.361 71.772z"/><path d="M743.963 202.951c0 30.817-9.398 58.697-24.57 78.861-15.172 20.165-36.093 32.591-59.161 32.591-23.068 0-43.99-12.426-59.162-32.591-15.171-20.164-24.57-48.044-24.57-78.861 0-30.816 9.399-58.696 24.57-78.861 15.172-20.164 36.094-32.59 59.162-32.59 23.068 0 43.989 12.426 59.161 32.59 15.172 20.165 24.57 48.045 24.57 78.861z"/></g></g><g opacity=".1"><mask id="b" style="mask-type:alpha" maskUnits="userSpaceOnUse" x="0" y="36" width="284" height="284"><path d="M83.922 36.664c110.181 0 199.501 89.319 199.501 199.5v53.805c0 16.292-13.208 29.5-29.5 29.5H30c-16.292 0-29.5-13.208-29.5-29.5V66.164c0-16.293 13.208-29.5 29.5-29.5h53.922z" fill="url(#paint1_linear_272_22)" stroke="#6246E5"/></mask><g mask="url(#b)" stroke="#6246E5"><path d="M139.894 392.912c-20.395 0-38.897-11.002-52.317-28.864-13.42-17.862-21.736-42.561-21.736-69.864 0-27.303 8.316-52.002 21.736-69.864 13.42-17.862 31.922-28.864 52.317-28.864s38.897 11.002 52.317 28.864c13.421 17.862 21.736 42.561 21.736 69.864 0 27.303-8.315 52.002-21.736 69.864-13.42 17.862-31.922 28.864-52.317 28.864z"/><path d="M147.742 396.829c-22.833 0-43.542-12.317-58.56-32.305-15.018-19.989-24.322-47.626-24.322-78.174 0-30.548 9.304-58.185 24.322-78.173 15.018-19.989 35.727-32.305 58.56-32.305 22.833 0 43.542 12.316 58.56 32.305 15.018 19.988 24.322 47.625 24.322 78.173 0 30.548-9.304 58.185-24.322 78.174-15.018 19.988-35.727 32.305-58.56 32.305z"/><path d="M154.118 400.746c-25 0-47.671-13.486-64.109-35.364-16.438-21.879-26.62-52.127-26.62-85.56 0-33.432 10.182-63.68 26.62-85.559 16.438-21.878 39.109-35.364 64.109-35.364 25 0 47.671 13.486 64.109 35.364 16.438 21.879 26.62 52.127 26.62 85.559 0 33.433-10.182 63.681-26.62 85.56-16.438 21.878-39.109 35.364-64.109 35.364z"/><path d="M163.437 403.357c-26.896 0-51.284-14.509-68.964-38.041-17.681-23.533-28.632-56.066-28.632-92.022s10.95-68.489 28.632-92.021c17.68-23.533 42.068-38.042 68.964-38.042 26.897 0 51.284 14.509 68.965 38.042 17.681 23.532 28.631 56.065 28.631 92.021s-10.95 68.489-28.631 92.022c-17.681 23.532-42.068 38.041-68.965 38.041z"/><path d="M172.511 405.968c-28.724 0-54.768-15.495-73.646-40.622-18.88-25.128-30.571-59.864-30.571-98.254 0-38.389 11.691-73.126 30.57-98.253 18.879-25.127 44.923-40.623 73.647-40.623 28.725 0 54.768 15.496 73.647 40.623 18.879 25.127 30.571 59.864 30.571 98.253 0 38.39-11.692 73.126-30.571 98.254-18.879 25.127-44.922 40.622-73.647 40.622z"/><path d="M182.811 409.233c-31.569 0-60.187-17.03-80.93-44.638-20.743-27.609-33.587-65.772-33.587-107.947 0-42.176 12.844-80.339 33.587-107.948 20.743-27.608 49.361-44.638 80.93-44.638 31.569 0 60.187 17.03 80.93 44.638 20.743 27.609 33.588 65.772 33.588 107.948 0 42.175-12.845 80.338-33.588 107.947-20.743 27.608-49.361 44.638-80.93 44.638z"/></g></g><defs><linearGradient id="paint0_linear_272_22" x1="698.118" y1="7.753" x2="535.2" y2="239.716" gradientUnits="userSpaceOnUse"><stop stop-color="#747DEF"/><stop offset="1" stop-color="#5E3BE1"/></linearGradient><linearGradient id="paint1_linear_272_22" x1="275.957" y1="237.449" x2="-31.458" y2="115.396" gradientUnits="userSpaceOnUse"><stop stop-color="#747DEF"/><stop offset="1" stop-color="#5E3BE1"/></linearGradient></defs></svg>

<svg width="744" height="320" viewBox="0 0 744 320" fill="none" xmlns="http://www.w3.org/2000/svg">
<path d="M743.522 200C743.522 89.5429 653.979 0 543.522 0H72.053C55.4845 0 42.053 13.4315 42.053 30V289.969C42.053 306.537 55.4845 319.969 72.053 319.969H713.522C730.091 319.969 743.522 306.537 743.522 289.969V200Z" fill="white"/>
<g opacity="0.1">
<mask id="mask0_272_22" style="mask-type:alpha" maskUnits="userSpaceOnUse" x="587" y="0" width="157" height="277">
<path d="M587.865 135.789C587.865 61.071 648.436 0.5 723.154 0.5C734.127 0.5 743.022 9.39537 743.022 20.3684V246.354C743.022 262.646 729.815 275.854 713.522 275.854H617.365C601.072 275.854 587.865 262.646 587.865 246.354V135.789Z" fill="url(#paint0_linear_272_22)" stroke="#6246E5"/>
</mask>
<g mask="url(#mask0_272_22)">
<path d="M734.983 244.724C734.983 264.665 728.901 282.698 719.092 295.735C709.283 308.772 695.77 316.79 680.885 316.79C666 316.79 652.487 308.772 642.678 295.735C632.869 282.698 626.787 264.665 626.787 244.724C626.787 224.784 632.869 206.751 642.678 193.713C652.487 180.677 666 172.659 680.885 172.659C695.77 172.659 709.283 180.677 719.092 193.713C728.901 206.751 734.983 224.784 734.983 244.724Z" stroke="#6246E5"/>
<path d="M737.138 237.086C737.138 259.399 730.333 279.581 719.354 294.173C708.375 308.765 693.245 317.745 676.575 317.745C659.905 317.745 644.775 308.765 633.796 294.173C622.817 279.581 616.011 259.399 616.011 237.086C616.011 214.773 622.817 194.591 633.796 179.998C644.775 165.406 659.905 156.427 676.575 156.427C693.245 156.427 708.375 165.406 719.354 179.998C730.333 194.591 737.138 214.773 737.138 237.086Z" stroke="#6246E5"/>
<path d="M739.294 230.88C739.294 255.302 731.845 277.394 719.826 293.368C707.807 309.343 691.24 319.177 672.983 319.177C654.726 319.177 638.159 309.343 626.14 293.368C614.121 277.394 606.672 255.302 606.672 230.88C606.672 206.457 614.121 184.366 626.14 168.391C638.159 152.417 654.726 142.582 672.983 142.582C691.24 142.582 707.807 152.417 719.826 168.391C731.845 184.366 739.294 206.457 739.294 230.88Z" stroke="#6246E5"/>
<path d="M740.731 221.809C740.731 248.077 732.719 271.839 719.79 289.023C706.861 306.207 689.037 316.79 669.391 316.79C649.745 316.79 631.922 306.207 618.993 289.023C606.063 271.839 598.052 248.077 598.052 221.809C598.052 195.541 606.063 171.778 618.993 154.594C631.922 137.41 649.745 126.828 669.391 126.828C689.037 126.828 706.861 137.41 719.79 154.594C732.719 171.778 740.731 195.541 740.731 221.809Z" stroke="#6246E5"/>
<path d="M742.167 212.977C742.167 241.025 733.613 266.398 719.806 284.749C706 303.099 686.964 314.403 665.979 314.403C644.994 314.403 625.958 303.099 612.151 284.749C598.345 266.398 589.79 241.025 589.79 212.977C589.79 184.929 598.345 159.555 612.151 141.205C625.958 122.855 644.994 111.551 665.979 111.551C686.964 111.551 706 122.855 719.806 141.205C733.613 159.555 742.167 184.929 742.167 212.977Z" stroke="#6246E5"/>
<path d="M743.963 202.951C743.963 233.768 734.565 261.648 719.393 281.812C704.221 301.977 683.3 314.403 660.232 314.403C637.164 314.403 616.242 301.977 601.07 281.812C585.899 261.648 576.5 233.768 576.5 202.951C576.5 172.135 585.899 144.255 601.07 124.09C616.242 103.926 637.164 91.5 660.232 91.5C683.3 91.5 704.221 103.926 719.393 124.09C734.565 144.255 743.963 172.135 743.963 202.951Z" stroke="#6246E5"/>
</g>
</g>
<g opacity="0.1">
<mask id="mask1_272_22" style="mask-type:alpha" maskUnits="userSpaceOnUse" x="0" y="36" width="284" height="284">
<path d="M83.9225 36.6636C194.103 36.6636 283.423 125.983 283.423 236.164L283.423 289.969C283.423 306.261 270.215 319.469 253.923 319.469L30 319.469C13.7076 319.469 0.499991 306.261 0.499992 289.969L0.499999 66.1636C0.5 49.8712 13.7076 36.6636 30 36.6636L83.9225 36.6636Z" fill="url(#paint1_linear_272_22)" stroke="#6246E5"/>
</mask>
<g mask="url(#mask1_272_22)">
<path d="M139.894 392.912C119.499 392.912 100.997 381.91 87.5769 364.048C74.1565 346.186 65.8411 321.487 65.8411 294.184C65.8411 266.881 74.1565 242.182 87.5769 224.32C100.997 206.458 119.499 195.456 139.894 195.456C160.289 195.456 178.791 206.458 192.211 224.32C205.632 242.182 213.947 266.881 213.947 294.184C213.947 321.487 205.632 346.186 192.211 364.048C178.791 381.91 160.289 392.912 139.894 392.912Z" stroke="#6246E5"/>
<path d="M147.742 396.829C124.909 396.829 104.2 384.512 89.1819 364.524C74.1639 344.535 64.8603 316.898 64.8603 286.35C64.8603 255.802 74.1639 228.165 89.1819 208.177C104.2 188.188 124.909 175.872 147.742 175.872C170.575 175.872 191.284 188.188 206.302 208.177C221.32 228.165 230.624 255.802 230.624 286.35C230.624 316.898 221.32 344.535 206.302 364.524C191.284 384.512 170.575 396.829 147.742 396.829Z" stroke="#6246E5"/>
<path d="M154.118 400.746C129.118 400.746 106.447 387.26 90.009 365.382C73.5708 343.503 63.3888 313.255 63.3888 279.822C63.3888 246.39 73.5708 216.142 90.009 194.263C106.447 172.385 129.118 158.899 154.118 158.899C179.118 158.899 201.789 172.385 218.227 194.263C234.665 216.142 244.847 246.39 244.847 279.822C244.847 313.255 234.665 343.503 218.227 365.382C201.789 387.26 179.118 400.746 154.118 400.746Z" stroke="#6246E5"/>
<path d="M163.437 403.357C136.541 403.357 112.153 388.848 94.4728 365.316C76.7919 341.783 65.8414 309.25 65.8414 273.294C65.8414 237.338 76.7919 204.805 94.4728 181.273C112.153 157.74 136.541 143.231 163.437 143.231C190.334 143.231 214.721 157.74 232.402 181.273C250.083 204.805 261.033 237.338 261.033 273.294C261.033 309.25 250.083 341.783 232.402 365.316C214.721 388.848 190.334 403.357 163.437 403.357Z" stroke="#6246E5"/>
<path d="M172.511 405.968C143.787 405.968 117.743 390.473 98.8645 365.346C79.9854 340.218 68.2937 305.482 68.2937 267.092C68.2937 228.703 79.9854 193.966 98.8645 168.839C117.743 143.712 143.787 128.216 172.511 128.216C201.236 128.216 227.279 143.712 246.158 168.839C265.037 193.966 276.729 228.703 276.729 267.092C276.729 305.482 265.037 340.218 246.158 365.346C227.279 390.473 201.236 405.968 172.511 405.968Z" stroke="#6246E5"/>
<path d="M182.811 409.233C151.242 409.233 122.624 392.203 101.881 364.595C81.1382 336.986 68.2936 298.823 68.2937 256.648C68.2937 214.472 81.1382 176.309 101.881 148.7C122.624 121.092 151.242 104.062 182.811 104.062C214.38 104.062 242.998 121.092 263.741 148.7C284.484 176.309 297.329 214.472 297.329 256.648C297.329 298.823 284.484 336.986 263.741 364.595C242.998 392.203 214.38 409.233 182.811 409.233Z" stroke="#6246E5"/>
</g>
</g>
<defs>
<linearGradient id="paint0_linear_272_22" x1="698.118" y1="7.75341" x2="535.2" y2="239.716" gradientUnits="userSpaceOnUse">
<stop stop-color="#747DEF"/>
<stop offset="1" stop-color="#5E3BE1"/>
</linearGradient>
<linearGradient id="paint1_linear_272_22" x1="275.957" y1="237.449" x2="-31.4577" y2="115.396" gradientUnits="userSpaceOnUse">
<stop stop-color="#747DEF"/>
<stop offset="1" stop-color="#5E3BE1"/>
</linearGradient>
</defs>
</svg>
